resources/haticons/SVG/label_important_outline.svg

<!-- Generated by IcoMoon.io -->
<svg version="1.1" xmlns="http://www.w3.org/2000/svg" width="24" height="24" viewBox="0 0 24 24">
<title>label_important_outline</title>
<path d="M6.516 17.016h8.484l3.516-5.016-3.516-5.016h-8.484l3.469 5.016zM15 18.984h-12l4.5-6.984-4.5-6.984h12q1.031 0 1.641 0.844l4.359 6.141-4.359 6.141q-0.609 0.844-1.641 0.844z"></path>
</svg>

<svg xmlns="http://www.w3.org/2000/svg" width="24" height="24"><path d="M6.516 17.016H15L18.516 12 15 6.984H6.516L9.985 12zM15 18.984H3L7.5 12 3 5.016h12q1.031 0 1.641.844L21 12.001l-4.359 6.141q-.609.844-1.641.844z"/></svg>
